X:2064
T:Carol
C:Traditional
O:Isle of Man
Z:Clague collection
B:Kiaull Vannin #64 
M:4/4 
Q:60 
L:1/4
K:D 
E2 GF|E2B2|cB/A/ GA|B4 |E2 GF|E2B2|cB/A/ GA|B4|
B2 cB|G2 E2|GF GA|B4 |E2 GA|c2 B2|B/A/ GAF|E4||


